X:6
T:McPherson's Rave
C:Bob Massie
H:1997
N:Garrick McPherson, brilliant singer had a "Rave" for his 40th birthday.
M:4/4
L:1/4
Q:1/4=120     %Tempo
K:A
EF A2 af ec |BA Bc BA F2 |EF A2 af ec |BA B6 |
EF A2 af ec |BA Bc BA F2 |EF Bc BA FE |EF A6 |
EF af ec BA |FG A4 fg |a2 a2 g2 g2 |fg fe c2 Bc |
fg fe cB Bc |f6 fg |a2 a2 g2 g2 |fg fe c2 Bc |
Ee cA BA FG |A6 EF |AB cB ce fe |fg a2 gf ec |
BA BA FG A2 |]
